X:324
T:Shave the Donkey - Bampton
M:4/4
K:G
d2 B2 dcBA | G2 g2 e2 g2 | d2 B2 dcBA | G2 B2 G4 :| 
A3 c B2 d2 | A3 c  B2 d2 | A3 c B2 d2 | dcBA  G4 :| 

